<?xml version="1.0" encoding="UTF-8"?>
<map version="1.10" tiledversion="1.12.1" orientation="orthogonal" renderorder="right-down" width="25" height="15" tilewidth="64" tileheight="64" infinite="0" nextlayerid="2" nextobjectid="1">
 <tileset firstgid="1" source="Gemini_Generated_Image_tp07xvtp07xvtp07.tsx"/>
 <layer id="1" name="Capa de patrones 1" width="25" height="15">
  <data encoding="csv">
41,41,41,41,41,41,41,41,41,41,22,22,22,22,22,0,0,0,0,0,0,0,0,0,0,
41,21,22,22,22,22,22,23,0,0,0,0,0,0,0,0,0,0,0,0,0,0,0,0,0,
41,40,41,41,41,41,41,42,0,0,0,0,0,0,0,0,0,0,0,0,0,0,0,0,0,
41,40,41,41,41,41,41,42,0,0,0,0,34,0,0,0,0,0,0,0,0,0,0,0,0,
41,40,41,41,41,41,41,42,0,0,30,0,52,0,0,0,0,0,0,0,0,0,0,0,0,
41,40,41,41,41,41,41,42,0,0,0,0,0,0,0,0,0,0,0,0,0,0,0,0,0,
41,40,0,0,0,0,0,0,135,136,137,90,0,0,0,0,0,0,0,0,0,0,0,0,0,
41,40,0,0,0,0,0,0,154,155,156,0,0,0,0,0,0,0,0,0,0,0,0,0,0,
41,40,0,0,0,0,0,0,173,174,175,0,107,0,0,0,0,0,0,0,0,0,0,0,0,
41,40,0,0,0,0,22,22,22,22,22,0,107,0,0,0,0,0,0,0,0,0,0,0,0,
41,40,0,0,0,0,0,0,0,0,0,0,107,0,0,0,0,0,0,0,0,0,0,0,0,
41,40,0,0,0,0,0,0,0,0,0,0,0,0,0,0,0,0,0,0,0,0,0,0,0,
41,40,0,0,0,0,0,0,0,0,0,0,0,0,0,0,0,0,0,0,0,0,0,0,0,
41,40,0,0,0,0,0,0,0,0,0,0,0,0,0,0,0,0,0,0,0,0,0,0,0,
41,40,0,0,0,0,0,0,0,0,0,0,0,0,0,0,0,0,0,0,0,0,0,0,0
</data>
 </layer>
</map>
