<?xml version="1.0" encoding="UTF-8"?>
<map version="1.10" tiledversion="1.12.1" orientation="orthogonal" renderorder="right-down" width="63" height="63" tilewidth="64" tileheight="64" infinite="0" nextlayerid="13" nextobjectid="32">
 <tileset firstgid="1" source="Palm Tree Island (ArtBoard).tsx"/>
 <tileset firstgid="301" source="Tiled/thorne_andando_mejorado.tsx"/>
 <tileset firstgid="308" source="Tiled/ladrillo_limpio.tsx"/>
 <tileset firstgid="309" source="Tiled/ladrillo_musgoso.tsx"/>
 <tileset firstgid="310" source="Tiled/palanca1.tsx"/>
 <tileset firstgid="311" source="Tiled/puerta_cerrada.tsx"/>
 <tileset firstgid="312" source="Tiled/wergw.tsx"/>
 <tileset firstgid="313" source="Tiled/muro_marco_ventana.tsx"/>
 <tileset firstgid="314" source="Tiled/ladrillo_plataforma.tsx"/>
 <tileset firstgid="315" source="ladrillo_plataforma.tsx"/>
 <tileset firstgid="316" name="palanca1" tilewidth="64" tileheight="64" tilecount="1" columns="1">
  <image source="../images/palanca1.png" width="64" height="64"/>
 </tileset>
 <tileset firstgid="317" source="Tiled/ladrillo_puerta.tsx"/>
 <tileset firstgid="318" source="Tiled/puerta_gris.tsx"/>
 <tileset firstgid="319" source="../../../Cosas en sucio/palanca1.tsx"/>
 <tileset firstgid="320" source="Tiled/puerta_negra.tsx"/>
 <group id="6" name="Entidades">
  <objectgroup id="7" name="Jugador">
   <object id="1" name="Punto Reaparición Jugador" type="Jugador" gid="301" x="1856" y="1985" width="128" height="128"/>
  </objectgroup>
 </group>
 <group id="2" name="Bloques">
  <layer id="1" name="Muros" width="63" height="63">
   <data encoding="csv">
0,0,0,0,0,0,0,0,0,0,0,0,0,0,0,0,0,0,0,0,0,0,0,0,0,0,0,0,0,0,0,0,0,0,0,0,0,0,0,0,0,0,0,0,0,0,0,0,0,0,0,0,0,0,0,0,0,0,0,0,0,0,0,
0,0,0,0,0,0,0,0,0,0,0,0,0,0,0,0,0,0,0,0,0,0,0,0,0,0,0,0,0,0,0,0,0,0,0,0,0,0,0,0,0,0,0,0,0,0,0,0,0,0,0,0,0,0,0,0,0,0,0,0,0,0,0,
0,0,0,0,0,0,0,0,0,0,0,0,0,0,0,0,0,0,0,0,0,0,0,0,0,0,0,0,0,0,0,0,0,0,0,0,0,0,0,0,0,0,0,0,0,0,0,0,0,0,0,0,0,0,0,0,0,0,0,0,0,0,0,
0,0,0,308,308,308,308,308,308,308,308,308,308,308,308,308,308,308,308,308,308,308,308,308,308,308,308,308,308,308,308,308,308,308,308,308,308,308,308,308,308,308,308,308,308,308,308,308,308,308,308,308,308,308,308,308,308,308,308,308,0,0,0,
0,0,0,308,0,0,0,0,0,0,0,0,0,0,0,0,0,0,0,308,0,0,0,0,0,0,0,0,0,0,0,0,0,0,0,0,0,0,0,0,0,0,0,308,0,0,0,0,0,0,0,0,0,0,0,0,0,0,0,308,0,0,0,
0,0,0,308,0,0,0,0,0,0,0,0,0,0,0,0,0,0,0,308,0,0,0,0,0,0,0,0,0,0,0,0,0,0,0,0,0,0,0,0,0,0,0,308,0,0,0,0,0,0,0,0,0,0,0,0,0,0,0,308,0,0,0,
0,0,0,308,0,0,0,0,0,0,0,0,0,0,0,0,0,0,0,308,0,0,0,0,0,0,0,0,0,0,0,0,0,0,0,0,0,0,0,0,0,0,0,308,0,0,0,0,0,0,0,0,0,0,0,0,0,0,0,308,0,0,0,
0,0,0,308,0,0,0,308,308,308,308,308,308,308,308,308,308,308,308,308,0,0,0,308,308,308,308,308,308,308,308,308,0,0,0,308,308,308,308,308,308,308,308,308,0,0,0,308,308,308,308,308,308,308,308,308,0,0,0,308,0,0,0,
0,0,0,308,0,0,0,0,0,0,0,308,0,0,0,0,0,0,0,0,0,0,0,308,0,0,0,0,0,0,0,308,0,0,0,0,0,0,0,308,0,0,0,308,0,0,0,0,0,0,0,0,0,0,0,308,0,0,0,308,0,0,0,
0,0,0,308,0,0,0,0,0,0,0,308,0,0,0,0,0,0,0,0,0,0,0,308,0,0,0,0,0,0,0,308,0,0,0,0,0,0,0,308,0,0,0,308,0,0,0,0,0,0,0,0,0,0,0,308,0,0,0,308,0,0,0,
0,0,0,308,0,0,0,0,0,0,0,308,0,0,0,0,0,0,0,0,0,0,0,308,0,0,0,0,0,0,0,308,0,0,0,0,0,0,0,308,0,0,0,308,0,0,0,0,0,0,0,0,0,0,0,308,0,0,0,308,0,0,0,
0,0,0,308,308,308,308,308,0,0,0,308,308,308,308,308,308,308,308,308,308,308,308,308,0,0,0,308,0,0,0,308,308,308,308,308,0,0,0,308,0,0,0,308,308,308,308,308,308,308,308,308,0,0,0,308,308,308,308,308,0,0,0,
0,0,0,308,0,0,0,0,0,0,0,308,0,0,0,0,0,0,0,308,0,0,0,0,0,0,0,308,0,0,0,0,0,0,0,308,0,0,0,0,0,0,0,308,0,0,0,0,0,0,0,308,0,0,0,0,0,0,0,308,0,0,0,
0,0,0,308,0,0,0,0,0,0,0,308,0,0,0,0,0,0,0,308,0,0,0,0,0,0,0,308,0,0,0,0,0,0,0,308,0,0,0,0,0,0,0,308,0,0,0,0,0,0,0,308,0,0,0,0,0,0,0,308,0,0,0,
0,0,0,308,0,0,0,0,0,0,0,308,0,0,0,0,0,0,0,308,0,0,0,0,0,0,0,308,0,0,0,0,0,0,0,308,0,0,0,0,0,0,0,308,0,0,0,0,0,0,0,308,0,0,0,0,0,0,0,308,0,0,0,
0,0,0,308,0,0,0,308,308,308,308,308,0,0,0,308,0,0,0,308,0,0,0,308,308,308,308,308,308,308,308,308,308,308,308,308,308,308,308,308,308,308,308,308,0,0,0,308,0,0,0,308,0,0,0,308,0,0,0,308,0,0,0,
0,0,0,308,0,0,0,0,0,0,0,0,0,0,0,308,0,0,0,0,0,0,0,308,0,0,0,0,0,0,0,0,0,0,0,308,0,0,0,0,0,0,0,0,0,0,0,308,0,0,0,0,0,0,0,308,0,0,0,308,0,0,0,
0,0,0,308,0,0,0,0,0,0,0,0,0,0,0,308,0,0,0,0,0,0,0,308,0,0,0,0,0,0,0,0,0,0,0,308,0,0,0,0,0,0,0,0,0,0,0,308,0,0,0,0,0,0,0,308,0,0,0,308,0,0,0,
0,0,0,308,0,0,0,0,0,0,0,0,0,0,0,308,0,0,0,0,0,0,0,308,0,0,0,0,0,0,0,0,0,0,0,308,0,0,0,0,0,0,0,0,0,0,0,308,0,0,0,0,0,0,0,308,0,0,0,308,0,0,0,
0,0,0,308,308,308,308,308,308,308,308,308,308,308,308,308,308,308,308,308,0,0,0,308,0,0,0,308,308,308,308,308,0,0,0,308,0,0,0,308,308,308,308,308,308,308,308,308,0,0,0,308,308,308,308,308,308,308,308,308,0,0,0,
0,0,0,308,0,0,0,0,0,0,0,0,0,0,0,0,0,0,0,0,0,0,0,308,0,0,0,0,0,0,0,308,0,0,0,0,0,0,0,308,0,0,0,0,0,0,0,0,0,0,0,308,0,0,0,0,0,0,0,308,0,0,0,
0,0,0,308,0,0,0,0,0,0,0,0,0,0,0,0,0,0,0,0,0,0,0,308,0,0,0,0,0,0,0,308,0,0,0,0,0,0,0,308,0,0,0,0,0,0,0,0,0,0,0,308,0,0,0,0,0,0,0,308,0,0,0,
0,0,0,308,0,0,0,0,0,0,0,0,0,0,0,0,0,0,0,0,0,0,0,308,0,0,0,0,0,0,0,308,0,0,0,0,0,0,0,308,0,0,0,0,0,0,0,0,0,0,0,308,0,0,0,0,0,0,0,308,0,0,0,
0,0,0,308,0,0,0,308,308,308,308,308,0,0,0,308,308,308,308,308,308,308,308,308,308,308,308,308,0,0,0,308,308,308,308,308,308,308,308,308,0,0,0,308,308,308,308,308,308,308,308,308,308,308,308,308,0,0,0,308,0,0,0,
0,0,0,308,0,0,0,0,0,0,0,308,0,0,0,0,0,0,0,308,0,0,0,0,0,0,0,0,0,0,0,0,0,0,0,0,0,0,0,308,0,0,0,308,0,0,0,0,0,0,0,0,0,0,0,0,0,0,0,308,0,0,0,
0,0,0,308,0,0,0,0,0,0,0,308,0,0,0,0,0,0,0,308,0,0,0,0,0,0,0,0,0,0,0,0,0,0,0,0,0,0,0,308,0,0,0,308,0,0,0,0,0,0,0,0,0,0,0,0,0,0,0,308,0,0,0,
0,0,0,308,0,0,0,0,0,0,0,308,0,0,0,0,0,0,0,308,0,0,0,0,0,0,0,0,0,0,0,0,0,0,0,0,0,0,0,308,0,0,0,308,0,0,0,0,0,0,0,0,0,0,0,0,0,0,0,308,0,0,0,
0,0,0,308,308,308,308,308,0,0,0,308,308,308,308,308,0,0,0,308,0,0,0,308,308,308,308,308,308,308,308,308,308,308,308,308,0,0,0,308,0,0,0,308,0,0,0,308,0,0,0,308,308,308,308,308,308,308,308,308,0,0,0,
0,0,0,308,0,0,0,0,0,0,0,308,0,0,0,0,0,0,0,0,0,0,0,0,0,0,0,0,0,0,0,0,0,0,0,308,0,0,0,308,0,0,0,0,0,0,0,308,0,0,0,0,0,0,0,0,0,0,0,308,0,0,0,
0,0,0,308,0,0,0,0,0,0,0,308,0,0,0,0,0,0,0,0,0,0,0,0,0,0,0,0,0,0,0,0,0,0,0,308,0,0,0,308,0,0,0,0,0,0,0,308,0,0,0,0,0,0,0,0,0,0,0,308,0,0,0,
0,0,0,308,0,0,0,0,0,0,0,308,0,0,0,0,0,0,0,0,0,0,0,0,0,0,0,0,0,0,0,0,0,0,0,308,0,0,0,308,0,0,0,0,0,0,0,308,0,0,0,0,0,0,0,0,0,0,0,308,0,0,0,
0,0,0,308,0,0,0,308,308,308,308,308,0,0,0,308,308,308,308,308,0,0,0,308,0,0,0,0,0,0,0,0,0,0,0,308,0,0,0,308,308,308,308,308,308,308,308,308,0,0,0,308,308,308,308,308,0,0,0,308,0,0,0,
0,0,0,308,0,0,0,308,0,0,0,0,0,0,0,0,0,0,0,308,0,0,0,308,0,0,0,0,0,0,0,0,0,0,0,0,0,0,0,0,0,0,0,0,0,0,0,0,0,0,0,308,0,0,0,0,0,0,0,308,0,0,0,
0,0,0,308,0,0,0,308,0,0,0,0,0,0,0,0,0,0,0,308,0,0,0,308,0,0,0,0,0,0,0,0,0,0,0,0,0,0,0,0,0,0,0,0,0,0,0,0,0,0,0,308,0,0,0,0,0,0,0,308,0,0,0,
0,0,0,308,0,0,0,308,0,0,0,0,0,0,0,0,0,0,0,308,0,0,0,308,0,0,0,0,0,0,0,0,0,0,0,0,0,0,0,0,0,0,0,0,0,0,0,0,0,0,0,308,0,0,0,0,0,0,0,308,0,0,0,
0,0,0,308,308,308,308,308,0,0,0,308,308,308,308,308,0,0,0,308,0,0,0,308,308,308,308,308,308,308,308,308,308,308,308,308,0,0,0,308,308,308,308,308,0,0,0,308,308,308,308,308,0,0,0,308,0,0,0,308,0,0,0,
0,0,0,308,0,0,0,0,0,0,0,308,0,0,0,0,0,0,0,308,0,0,0,0,0,0,0,0,0,0,0,0,0,0,0,308,0,0,0,308,0,0,0,308,0,0,0,308,0,0,0,0,0,0,0,308,0,0,0,308,0,0,0,
0,0,0,308,0,0,0,0,0,0,0,308,0,0,0,0,0,0,0,308,0,0,0,0,0,0,0,0,0,0,0,0,0,0,0,308,0,0,0,308,0,0,0,308,0,0,0,308,0,0,0,0,0,0,0,308,0,0,0,308,0,0,0,
0,0,0,308,0,0,0,0,0,0,0,308,0,0,0,0,0,0,0,308,0,0,0,0,0,0,0,0,0,0,0,0,0,0,0,308,0,0,0,308,0,0,0,308,0,0,0,308,0,0,0,0,0,0,0,308,0,0,0,308,0,0,0,
0,0,0,308,308,308,308,308,308,308,308,308,0,0,0,308,308,308,308,308,0,0,0,308,308,308,308,308,308,308,308,308,308,308,308,308,0,0,0,308,0,0,0,308,0,0,0,308,0,0,0,308,0,0,0,308,308,308,308,308,0,0,0,
0,0,0,308,0,0,0,308,0,0,0,0,0,0,0,0,0,0,0,308,0,0,0,0,0,0,0,0,0,0,0,0,0,0,0,0,0,0,0,308,0,0,0,0,0,0,0,308,0,0,0,308,0,0,0,0,0,0,0,308,0,0,0,
0,0,0,308,0,0,0,308,0,0,0,0,0,0,0,0,0,0,0,308,0,0,0,0,0,0,0,0,0,0,0,0,0,0,0,0,0,0,0,308,0,0,0,0,0,0,0,308,0,0,0,308,0,0,0,0,0,0,0,308,0,0,0,
0,0,0,308,0,0,0,308,0,0,0,0,0,0,0,0,0,0,0,308,0,0,0,0,0,0,0,0,0,0,0,0,0,0,0,0,0,0,0,308,0,0,0,0,0,0,0,308,0,0,0,308,0,0,0,0,0,0,0,308,0,0,0,
0,0,0,308,0,0,0,308,0,0,0,308,308,308,308,308,0,0,0,308,308,308,308,308,308,308,308,308,308,308,308,308,308,308,308,308,0,0,0,308,308,308,308,308,308,308,308,308,0,0,0,308,308,308,308,308,0,0,0,308,0,0,0,
0,0,0,308,0,0,0,308,0,0,0,0,0,0,0,308,0,0,0,0,0,0,0,0,0,0,0,0,0,0,0,308,0,0,0,0,0,0,0,308,0,0,0,0,0,0,0,0,0,0,0,0,0,0,0,308,0,0,0,308,0,0,0,
0,0,0,308,0,0,0,308,0,0,0,0,0,0,0,308,0,0,0,0,0,0,0,0,0,0,0,0,0,0,0,308,0,0,0,0,0,0,0,308,0,0,0,0,0,0,0,0,0,0,0,0,0,0,0,308,0,0,0,308,0,0,0,
0,0,0,308,0,0,0,308,0,0,0,0,0,0,0,308,0,0,0,0,0,0,0,0,0,0,0,0,0,0,0,308,0,0,0,0,0,0,0,308,0,0,0,0,0,0,0,0,0,0,0,0,0,0,0,308,0,0,0,308,0,0,0,
0,0,0,308,0,0,0,308,308,308,308,308,0,0,0,308,0,0,0,308,308,308,308,308,0,0,0,308,0,0,0,308,0,0,0,308,308,308,308,308,0,0,0,308,0,0,0,308,308,308,308,308,308,308,308,308,0,0,0,308,0,0,0,
0,0,0,308,0,0,0,0,0,0,0,0,0,0,0,308,0,0,0,308,0,0,0,0,0,0,0,308,0,0,0,0,0,0,0,308,0,0,0,0,0,0,0,308,0,0,0,0,0,0,0,308,0,0,0,0,0,0,0,308,0,0,0,
0,0,0,308,0,0,0,0,0,0,0,0,0,0,0,308,0,0,0,308,0,0,0,0,0,0,0,308,0,0,0,0,0,0,0,308,0,0,0,0,0,0,0,308,0,0,0,0,0,0,0,308,0,0,0,0,0,0,0,308,0,0,0,
0,0,0,308,0,0,0,0,0,0,0,0,0,0,0,308,0,0,0,308,0,0,0,0,0,0,0,308,0,0,0,0,0,0,0,308,0,0,0,0,0,0,0,308,0,0,0,0,0,0,0,308,0,0,0,0,0,0,0,308,0,0,0,
0,0,0,308,308,308,308,308,308,308,308,308,308,308,308,308,0,0,0,308,308,308,308,308,308,308,308,308,308,308,308,308,308,308,308,308,0,0,0,308,308,308,308,308,308,308,308,308,0,0,0,308,308,308,308,308,308,308,308,308,0,0,0,
0,0,0,308,0,0,0,0,0,0,0,308,0,0,0,0,0,0,0,308,0,0,0,0,0,0,0,0,0,0,0,0,0,0,0,0,0,0,0,308,0,0,0,0,0,0,0,308,0,0,0,0,0,0,0,0,0,0,0,308,0,0,0,
0,0,0,308,0,0,0,0,0,0,0,308,0,0,0,0,0,0,0,308,0,0,0,0,0,0,0,0,0,0,0,0,0,0,0,0,0,0,0,308,0,0,0,0,0,0,0,308,0,0,0,0,0,0,0,0,0,0,0,308,0,0,0,
0,0,0,308,0,0,0,0,0,0,0,308,0,0,0,0,0,0,0,308,0,0,0,0,0,0,0,0,0,0,0,0,0,0,0,0,0,0,0,308,0,0,0,0,0,0,0,308,0,0,0,0,0,0,0,0,0,0,0,308,0,0,0,
0,0,0,308,0,0,0,308,0,0,0,308,0,0,0,308,308,308,308,308,0,0,0,308,308,308,308,308,308,308,308,308,308,308,308,308,0,0,0,308,0,0,0,308,0,0,0,308,308,308,308,308,308,308,308,308,0,0,0,308,0,0,0,
0,0,0,308,0,0,0,308,0,0,0,0,0,0,0,0,0,0,0,308,0,0,0,0,0,0,0,0,0,0,0,0,0,0,0,308,0,0,0,0,0,0,0,308,0,0,0,0,0,0,0,0,0,0,0,0,0,0,0,308,0,0,0,
0,0,0,308,0,0,0,308,0,0,0,0,0,0,0,0,0,0,0,308,0,0,0,0,0,0,0,0,0,0,0,0,0,0,0,308,0,0,0,0,0,0,0,308,0,0,0,0,0,0,0,0,0,0,0,0,0,0,0,308,0,0,0,
0,0,0,308,0,0,0,308,0,0,0,0,0,0,0,0,0,0,0,308,0,0,0,0,0,0,0,0,0,0,0,0,0,0,0,308,0,0,0,0,0,0,0,308,0,0,0,0,0,0,0,0,0,0,0,0,0,0,0,308,0,0,0,
0,0,0,308,308,308,308,308,308,308,308,308,308,308,308,308,308,308,308,308,308,308,308,308,308,308,308,308,308,308,308,308,308,308,308,308,308,308,308,308,308,308,308,308,308,308,308,308,308,308,308,308,308,308,308,308,308,308,308,308,0,0,0,
0,0,0,0,0,0,0,0,0,0,0,0,0,0,0,0,0,0,0,0,0,0,0,0,0,0,0,0,0,0,0,0,0,0,0,0,0,0,0,0,0,0,0,0,0,0,0,0,0,0,0,0,0,0,0,0,0,0,0,0,0,0,0,
0,0,0,0,0,0,0,0,0,0,0,0,0,0,0,0,0,0,0,0,0,0,0,0,0,0,0,0,0,0,0,0,0,0,0,0,0,0,0,0,0,0,0,0,0,0,0,0,0,0,0,0,0,0,0,0,0,0,0,0,0,0,0,
0,0,0,0,0,0,0,0,0,0,0,0,0,0,0,0,0,0,0,0,0,0,0,0,0,0,0,0,0,0,0,0,0,0,0,0,0,0,0,0,0,0,0,0,0,0,0,0,0,0,0,0,0,0,0,0,0,0,0,0,0,0,0
</data>
  </layer>
 </group>
 <layer id="5" name="Plataformas Coladizas" width="63" height="63">
  <data encoding="csv">
0,0,0,0,0,0,0,0,0,0,0,0,0,0,0,0,0,0,0,0,0,0,0,0,0,0,0,0,0,0,0,0,0,0,0,0,0,0,0,0,0,0,0,0,0,0,0,0,0,0,0,0,0,0,0,0,0,0,0,0,0,0,0,
0,0,0,0,0,0,0,0,0,0,0,0,0,0,0,0,0,0,0,0,0,0,0,0,0,0,0,0,0,0,0,0,0,0,0,0,0,0,0,0,0,0,0,0,0,0,0,0,0,0,0,0,0,0,0,0,0,0,0,0,0,0,0,
0,0,0,0,0,0,0,0,0,0,0,0,0,0,0,0,0,0,0,0,0,0,0,0,0,0,0,0,0,0,0,0,0,0,0,0,0,0,0,0,0,0,0,0,0,0,0,0,0,0,0,0,0,0,0,0,0,0,0,0,0,0,0,
0,0,0,0,0,0,0,0,0,0,0,0,0,0,0,0,0,0,0,0,0,0,0,0,0,0,0,0,0,0,0,0,0,0,0,0,0,0,0,0,0,0,0,0,0,0,0,0,0,0,0,0,0,0,0,0,0,0,0,0,0,0,0,
0,0,0,0,0,0,0,0,0,0,0,0,0,0,0,0,0,0,0,0,0,0,0,0,0,0,0,0,0,0,0,0,0,0,0,0,0,0,0,0,0,0,0,0,0,0,0,0,0,0,0,0,0,0,0,0,0,0,0,0,0,0,0,
0,0,0,0,0,0,0,0,0,0,0,0,0,0,0,0,0,313,0,0,0,0,0,0,0,0,0,0,0,0,0,0,0,0,0,0,0,0,0,0,0,0,0,0,0,0,0,0,0,0,0,0,0,0,0,0,0,0,0,0,0,0,0,
0,0,0,0,0,0,0,0,0,0,0,0,0,0,0,0,0,0,0,0,0,0,0,0,0,0,0,0,0,0,0,0,0,0,0,0,0,0,0,0,0,0,0,0,0,0,0,0,0,0,0,0,0,0,0,0,0,0,0,0,0,0,0,
0,0,0,0,315,315,315,0,0,0,0,0,0,0,0,0,0,0,0,0,315,315,315,0,0,0,0,0,0,0,0,0,315,315,315,0,0,0,0,0,0,0,0,0,315,315,315,0,0,0,0,0,0,0,0,0,315,315,315,0,0,0,0,
0,0,0,0,0,0,0,0,0,0,0,0,0,0,0,0,0,0,0,0,0,0,0,0,0,0,0,0,0,0,0,0,0,0,0,0,0,0,0,0,0,0,0,0,0,0,0,0,0,0,0,0,0,0,0,0,0,0,0,0,0,0,0,
0,0,0,0,0,0,0,0,0,0,0,0,0,0,0,0,0,0,0,0,0,0,0,0,0,0,0,0,0,0,0,0,0,0,0,0,0,0,0,0,0,313,0,0,0,0,0,0,0,0,0,0,0,0,0,0,0,313,0,0,0,0,0,
0,0,0,0,0,0,0,0,0,0,0,0,0,0,0,0,0,0,0,0,0,0,0,0,0,0,0,0,0,0,0,0,0,0,0,0,0,0,0,0,0,0,0,0,0,0,0,0,0,0,0,0,0,0,0,0,0,0,0,0,0,0,0,
0,0,0,0,0,0,0,0,315,315,315,0,0,0,0,0,0,0,0,0,0,0,0,0,315,315,315,0,315,315,315,0,0,0,0,0,315,315,315,0,315,315,315,0,0,0,0,0,0,0,0,0,315,315,315,0,0,0,0,0,0,0,0,
0,0,0,0,0,0,0,0,0,0,0,0,0,0,0,0,0,0,0,0,0,0,0,0,0,0,0,0,0,0,0,0,0,0,0,0,0,0,0,0,0,0,0,0,0,0,0,0,0,0,0,0,0,0,0,0,0,0,0,0,0,0,0,
0,0,0,0,0,0,0,0,0,0,0,0,0,0,0,0,0,0,0,0,0,0,0,0,0,0,0,0,0,0,0,0,0,0,0,0,0,0,0,0,0,0,0,0,0,0,0,0,0,0,0,0,0,0,0,0,0,0,0,0,0,0,0,
0,0,0,0,0,0,0,0,0,0,0,0,0,0,0,0,0,0,0,0,0,0,0,0,0,0,0,0,0,0,0,0,0,0,0,0,0,0,0,0,0,0,0,0,0,0,0,0,0,0,0,0,0,0,0,0,0,0,0,0,0,0,0,
0,0,0,0,315,315,315,0,0,0,0,0,315,315,315,0,315,315,315,0,315,315,315,0,0,0,0,0,0,0,0,0,0,0,0,0,0,0,0,0,0,0,0,0,315,315,315,0,315,315,315,0,315,315,315,0,315,315,315,0,0,0,0,
0,0,0,0,0,0,0,0,0,0,0,0,0,0,0,0,0,0,0,0,0,0,0,0,0,0,0,0,0,0,0,0,0,0,0,0,0,0,0,0,0,0,0,0,0,0,0,0,0,0,0,0,0,0,0,0,0,0,0,0,0,0,0,
0,0,0,0,0,0,0,0,0,0,0,0,0,0,0,0,0,0,0,0,0,0,0,0,0,0,0,0,0,0,0,0,0,0,0,0,0,0,0,0,0,0,0,0,0,0,0,0,0,0,0,0,0,0,0,0,0,0,0,0,0,0,0,
0,0,0,0,0,0,0,0,0,0,0,0,0,0,0,0,0,0,0,0,0,0,0,0,0,0,0,0,0,0,0,0,0,0,0,0,0,0,0,0,0,0,0,0,0,0,0,0,0,0,0,0,0,0,0,0,0,0,0,0,0,0,0,
0,0,0,0,0,0,0,0,0,0,0,0,0,0,0,0,0,0,0,0,315,315,315,0,315,315,315,0,0,0,0,0,315,315,315,0,315,315,315,0,0,0,0,0,0,0,0,0,315,315,315,0,0,0,0,0,0,0,0,0,0,0,0,
0,0,0,0,0,0,0,0,0,0,0,0,0,0,0,0,0,0,0,0,0,0,0,0,0,0,0,0,0,0,0,0,0,0,0,0,0,0,0,0,0,0,0,0,0,0,0,0,0,0,0,0,0,0,0,0,0,0,0,0,0,0,0,
0,0,0,0,0,0,0,0,0,0,0,0,0,0,0,0,0,0,0,0,0,0,0,0,0,0,0,0,0,0,0,0,0,0,0,0,0,0,0,0,0,0,0,0,0,0,0,0,0,0,0,0,0,313,0,0,0,0,0,0,0,0,0,
0,0,0,0,0,0,0,0,0,0,0,0,0,0,0,0,0,0,0,0,0,0,0,0,0,0,0,0,0,0,0,0,0,0,0,0,0,0,0,0,0,0,0,0,0,0,0,0,0,0,0,0,0,0,0,0,0,0,0,0,0,0,0,
0,0,0,0,315,315,315,0,0,0,0,0,315,315,315,0,0,0,0,0,0,0,0,0,0,0,0,0,315,315,315,0,0,0,0,0,0,0,0,0,315,315,315,0,0,0,0,0,0,0,0,0,0,0,0,0,315,315,315,0,0,0,0,
0,0,0,0,0,0,0,0,0,0,0,0,0,0,0,0,0,0,0,0,0,0,0,0,0,0,0,0,0,0,0,0,0,0,0,0,0,0,0,0,0,0,0,0,0,0,0,0,0,0,0,0,0,0,0,0,0,0,0,0,0,0,0,
0,0,0,0,0,0,0,0,0,0,0,0,0,0,0,0,0,0,0,0,0,0,0,0,0,0,0,0,0,0,0,0,0,0,0,0,0,0,0,0,0,0,0,0,0,0,0,0,0,0,0,0,0,0,0,0,0,0,0,0,0,0,0,
0,0,0,0,0,0,0,0,0,0,0,0,0,0,0,0,0,0,0,0,0,0,0,0,0,0,0,0,0,0,0,0,0,0,0,0,0,0,0,0,0,0,0,0,0,0,0,0,0,0,0,0,0,0,0,0,0,0,0,0,0,0,0,
0,0,0,0,0,0,0,0,315,315,315,0,0,0,0,0,315,315,315,0,315,315,315,0,0,0,0,0,0,0,0,0,0,0,0,0,315,315,315,0,315,315,315,0,315,315,315,0,315,315,315,0,0,0,0,0,0,0,0,0,0,0,0,
0,0,0,0,0,0,0,0,0,0,0,0,0,0,0,0,0,0,0,0,0,0,0,0,0,0,0,0,0,0,0,0,0,0,0,0,0,0,0,0,0,0,0,0,0,0,0,0,0,0,0,0,0,0,0,0,0,0,0,0,0,0,0,
0,0,0,0,0,0,0,0,0,0,0,0,0,0,0,0,0,0,0,0,0,0,0,0,0,0,0,0,0,0,0,0,0,0,0,0,0,0,0,0,0,0,0,0,0,0,0,0,0,0,0,0,0,0,0,0,0,0,0,0,0,0,0,
0,0,0,0,0,0,0,0,0,0,0,0,0,0,0,0,0,0,0,0,0,0,0,0,0,0,0,0,0,0,0,0,0,0,0,0,0,0,0,0,0,0,0,0,0,0,0,0,0,0,0,0,0,0,0,0,0,0,0,0,0,0,0,
0,0,0,0,315,315,315,0,0,0,0,0,315,315,315,0,0,0,0,0,315,315,315,0,315,315,315,315,315,315,315,315,315,315,315,0,315,315,315,0,0,0,0,0,0,0,0,0,315,315,315,0,0,0,0,0,315,315,315,0,0,0,0,
0,0,0,0,0,0,0,0,0,0,0,0,0,0,0,0,0,0,0,0,0,0,0,0,0,0,0,0,0,0,0,0,0,0,0,0,0,0,0,0,0,0,0,0,0,0,0,0,0,0,0,0,0,0,0,0,0,0,0,0,0,0,0,
0,0,0,0,0,0,0,0,0,0,0,0,0,0,0,0,0,0,0,0,0,0,0,0,0,0,0,0,0,0,0,0,0,0,0,0,0,0,0,0,0,0,0,0,0,0,0,0,0,0,0,0,0,0,0,0,0,0,0,0,0,0,0,
0,0,0,0,0,0,0,0,0,0,0,0,0,0,0,0,0,0,0,0,0,0,0,0,0,0,0,0,0,0,0,0,0,0,0,0,0,0,0,0,0,0,0,0,0,0,0,0,0,0,0,0,0,0,0,0,0,0,0,0,0,0,0,
0,0,0,0,0,0,0,0,315,315,315,0,0,0,0,0,315,315,315,0,315,315,315,0,0,0,0,0,0,0,0,0,0,0,0,0,315,315,315,0,0,0,0,0,315,315,315,0,0,0,0,0,315,315,315,0,315,315,315,0,0,0,0,
0,0,0,0,0,0,0,0,0,0,0,0,0,0,0,0,0,0,0,0,0,0,0,0,0,0,0,0,0,0,0,0,0,0,0,0,0,0,0,0,0,0,0,0,0,0,0,0,0,0,0,0,0,0,0,0,0,0,0,0,0,0,0,
0,0,0,0,0,313,0,0,0,0,0,0,0,0,0,0,0,0,0,0,0,0,0,0,0,0,0,0,0,0,0,0,0,0,0,0,0,0,0,0,0,0,0,0,0,0,0,0,0,0,0,0,0,0,0,0,0,0,0,0,0,0,0,
0,0,0,0,0,0,0,0,0,0,0,0,0,0,0,0,0,0,0,0,0,0,0,0,0,0,0,0,0,0,0,0,0,0,0,0,0,0,0,0,0,0,0,0,0,0,0,0,0,0,0,0,0,0,0,0,0,0,0,0,0,0,0,
0,0,0,0,0,0,0,0,0,0,0,0,315,315,315,0,0,0,0,0,315,315,315,0,0,0,0,0,0,0,0,0,0,0,0,0,315,315,315,0,315,315,315,0,315,315,315,0,315,315,315,0,315,315,315,0,0,0,0,0,0,0,0,
0,0,0,0,0,0,0,0,0,0,0,0,0,0,0,0,0,0,0,0,0,0,0,0,0,0,0,0,0,0,0,0,0,0,0,0,0,0,0,0,0,0,0,0,0,0,0,0,0,0,0,0,0,0,0,0,0,0,0,0,0,0,0,
0,0,0,0,0,0,0,0,0,0,0,0,0,0,0,0,0,0,0,0,0,0,0,0,0,0,0,0,0,0,0,0,0,0,0,0,0,0,0,0,0,0,0,0,0,0,0,0,0,0,0,0,0,0,0,0,0,0,0,0,0,0,0,
0,0,0,0,0,0,0,0,0,0,0,0,0,0,0,0,0,0,0,0,0,0,0,0,0,0,0,0,0,0,0,0,0,0,0,0,0,0,0,0,0,0,0,0,0,0,0,0,0,0,0,0,0,0,0,0,0,0,0,0,0,0,0,
0,0,0,0,315,315,315,0,315,315,315,0,0,0,0,0,315,315,315,0,0,0,0,0,0,0,0,0,0,0,0,0,0,0,0,0,315,315,315,0,0,0,0,0,0,0,0,0,315,315,315,0,0,0,0,0,315,315,315,0,0,0,0,
0,0,0,0,0,0,0,0,0,0,0,0,0,0,0,0,0,0,0,0,0,0,0,0,0,0,0,0,0,0,0,0,0,0,0,0,0,0,0,0,0,0,0,0,0,0,0,0,0,0,0,0,0,0,0,0,0,0,0,0,0,0,0,
0,0,0,0,0,0,0,0,0,0,0,0,0,0,0,0,0,0,0,0,0,0,0,0,0,0,0,0,0,0,0,0,0,0,0,0,0,0,0,0,0,0,0,0,0,0,0,0,0,0,0,0,0,0,0,0,0,0,0,0,0,0,0,
0,0,0,0,0,0,0,0,0,0,0,0,0,0,0,0,0,0,0,0,0,0,0,0,0,0,0,0,0,0,0,0,0,0,0,0,0,0,0,0,0,0,0,0,0,0,0,0,0,0,0,0,0,0,0,0,0,0,0,0,0,0,0,
0,0,0,0,315,315,315,0,0,0,0,0,315,315,315,0,315,315,315,0,0,0,0,0,315,315,315,0,315,315,315,0,315,315,315,0,0,0,0,0,315,315,315,0,315,315,315,0,0,0,0,0,0,0,0,0,315,315,315,0,0,0,0,
0,0,0,0,0,0,0,0,0,0,0,0,0,0,0,0,0,0,0,0,0,0,0,0,0,0,0,0,0,0,0,0,0,0,0,0,0,0,0,0,0,0,0,0,0,0,0,0,0,0,0,0,0,0,0,0,0,0,0,0,0,0,0,
0,0,0,0,0,0,0,0,0,0,0,0,0,0,0,0,0,0,0,0,0,0,0,0,0,0,0,0,0,0,0,0,0,0,0,0,0,0,0,0,0,0,0,0,0,0,0,0,0,0,0,0,0,313,0,0,0,0,0,0,0,0,0,
0,0,0,0,0,0,0,0,0,0,0,0,0,0,0,0,0,0,0,0,0,0,0,0,0,0,0,0,0,0,0,0,0,0,0,0,0,0,0,0,0,0,0,0,0,0,0,0,0,0,0,0,0,0,0,0,0,0,0,0,0,0,0,
0,0,0,0,0,0,0,0,0,0,0,0,0,0,0,0,315,315,315,0,0,0,0,0,0,0,0,0,0,0,0,0,0,0,0,0,315,315,315,0,0,0,0,0,0,0,0,0,315,315,315,0,0,0,0,0,0,0,0,0,0,0,0,
0,0,0,0,0,0,0,0,0,0,0,0,0,0,0,0,0,0,0,0,0,0,0,0,0,0,0,0,0,0,0,0,0,0,0,0,0,0,0,0,0,0,0,0,0,0,0,0,0,0,0,0,0,0,0,0,0,0,0,0,0,0,0,
0,0,0,0,0,0,0,0,0,0,0,0,0,0,0,0,0,0,0,0,0,0,0,0,0,0,0,0,0,0,0,0,0,0,0,0,0,0,0,0,0,0,0,0,0,0,0,0,0,0,0,0,0,0,0,0,0,0,0,0,0,0,0,
0,0,0,0,0,0,0,0,0,0,0,0,0,0,0,0,0,0,0,0,0,0,0,0,0,0,0,0,0,0,0,0,0,0,0,0,0,0,0,0,0,0,0,0,0,0,0,0,0,0,0,0,0,0,0,0,0,0,0,0,0,0,0,
0,0,0,0,315,315,315,0,315,315,315,0,315,315,315,0,0,0,0,0,315,315,315,0,0,0,0,0,0,0,0,0,0,0,0,0,315,315,315,0,315,315,315,0,315,315,315,0,0,0,0,0,0,0,0,0,315,315,315,0,0,0,0,
0,0,0,0,0,0,0,0,0,0,0,0,0,0,0,0,0,0,0,0,0,0,0,0,0,0,0,0,0,0,0,0,0,0,0,0,0,0,0,0,0,0,0,0,0,0,0,0,0,0,0,0,0,0,0,0,0,0,0,0,0,0,0,
0,0,0,0,0,313,0,0,0,0,0,0,0,0,0,0,0,0,0,0,0,0,0,0,0,0,0,0,0,0,0,0,0,313,0,0,0,0,0,0,0,0,0,0,0,0,0,0,0,0,0,0,0,0,0,0,0,0,0,0,0,0,0,
0,0,0,0,0,0,0,0,0,0,0,0,0,0,0,0,0,0,0,0,0,0,0,0,0,0,0,0,0,0,0,0,0,0,0,0,0,0,0,0,0,0,0,0,0,0,0,0,0,0,0,0,0,0,0,0,0,0,0,0,0,0,0,
0,0,0,0,0,0,0,0,0,0,0,0,0,0,0,0,0,0,0,0,0,0,0,0,0,0,0,0,0,0,0,0,0,0,0,0,0,0,0,0,0,0,0,0,0,0,0,0,0,0,0,0,0,0,0,0,0,0,0,0,0,0,0,
0,0,0,0,0,0,0,0,0,0,0,0,0,0,0,0,0,0,0,0,0,0,0,0,0,0,0,0,0,0,0,0,0,0,0,0,0,0,0,0,0,0,0,0,0,0,0,0,0,0,0,0,0,0,0,0,0,0,0,0,0,0,0,
0,0,0,0,0,0,0,0,0,0,0,0,0,0,0,0,0,0,0,0,0,0,0,0,0,0,0,0,0,0,0,0,0,0,0,0,0,0,0,0,0,0,0,0,0,0,0,0,0,0,0,0,0,0,0,0,0,0,0,0,0,0,0,
0,0,0,0,0,0,0,0,0,0,0,0,0,0,0,0,0,0,0,0,0,0,0,0,0,0,0,0,0,0,0,0,0,0,0,0,0,0,0,0,0,0,0,0,0,0,0,0,0,0,0,0,0,0,0,0,0,0,0,0,0,0,0
</data>
 </layer>
 <group id="8" name="Objetos">
  <group id="9" name="Objetos de evento">
   <objectgroup id="12" name="Emisor">
    <object id="16" name="Palanca 1" type="Palanca" gid="319" x="304" y="2752" width="100" height="100">
     <properties>
      <property name="receptores" type="list">
       <item type="object" value="31"/>
       <item type="object" value="30"/>
       <item type="object" value="29"/>
       <item type="object" value="28"/>
       <item type="object" value="27"/>
       <item type="object" value="26"/>
       <item type="object" value="25"/>
       <item type="object" value="24"/>
      </property>
     </properties>
    </object>
    <object id="17" name="Palanca 2" type="Palanca" gid="319" x="1328" y="3264" width="100" height="100">
     <properties>
      <property name="receptores" type="list">
       <item type="object" value="31"/>
       <item type="object" value="30"/>
       <item type="object" value="29"/>
       <item type="object" value="28"/>
       <item type="object" value="27"/>
       <item type="object" value="26"/>
       <item type="object" value="25"/>
       <item type="object" value="24"/>
      </property>
     </properties>
    </object>
    <object id="18" name="Palanca 3" type="Palanca" gid="319" x="2607" y="2496" width="100" height="100">
     <properties>
      <property name="receptores" type="list">
       <item type="object" value="31"/>
       <item type="object" value="30"/>
       <item type="object" value="29"/>
       <item type="object" value="28"/>
       <item type="object" value="27"/>
       <item type="object" value="26"/>
       <item type="object" value="25"/>
       <item type="object" value="24"/>
      </property>
     </properties>
    </object>
    <object id="19" name="Palanca 4" type="Palanca" gid="319" x="2096" y="960" width="100" height="100">
     <properties>
      <property name="receptores" type="list">
       <item type="object" value="31"/>
       <item type="object" value="30"/>
       <item type="object" value="29"/>
       <item type="object" value="28"/>
       <item type="object" value="27"/>
       <item type="object" value="26"/>
       <item type="object" value="25"/>
       <item type="object" value="24"/>
      </property>
     </properties>
    </object>
    <object id="20" name="Palanca A" type="Palanca" gid="319" x="1648" y="2240" width="100" height="100">
     <properties>
      <property name="receptores" type="list">
       <item type="object" value="15"/>
       <item type="object" value="14"/>
       <item type="object" value="13"/>
       <item type="object" value="12"/>
       <item type="object" value="11"/>
       <item type="object" value="10"/>
       <item type="object" value="9"/>
       <item type="object" value="8"/>
      </property>
     </properties>
    </object>
    <object id="21" name="Palanca B" type="Palanca" gid="319" x="1776" y="2240" width="100" height="100">
     <properties>
      <property name="receptores" type="list">
       <item type="object" value="15"/>
       <item type="object" value="14"/>
       <item type="object" value="13"/>
       <item type="object" value="12"/>
       <item type="object" value="11"/>
       <item type="object" value="10"/>
       <item type="object" value="9"/>
       <item type="object" value="8"/>
      </property>
     </properties>
    </object>
    <object id="22" name="Palanca C" type="Palanca" gid="319" x="1904" y="2240" width="100" height="100">
     <properties>
      <property name="receptores" type="list">
       <item type="object" value="15"/>
       <item type="object" value="14"/>
       <item type="object" value="13"/>
       <item type="object" value="12"/>
       <item type="object" value="11"/>
       <item type="object" value="10"/>
       <item type="object" value="9"/>
       <item type="object" value="8"/>
      </property>
     </properties>
    </object>
    <object id="23" name="Palanca D" type="Palanca" gid="319" x="2032" y="2240" width="100" height="100">
     <properties>
      <property name="receptores" type="list">
       <item type="object" value="15"/>
       <item type="object" value="14"/>
       <item type="object" value="13"/>
       <item type="object" value="12"/>
       <item type="object" value="11"/>
       <item type="object" value="10"/>
       <item type="object" value="9"/>
       <item type="object" value="8"/>
      </property>
     </properties>
    </object>
   </objectgroup>
   <objectgroup id="10" name="Receptor">
    <object id="8" name="PuertaGris 2" type="PuertaGris" gid="318" x="1216" y="1984" width="256" height="256" rotation="-90">
     <properties>
      <property name="change" type="int" value="-90"/>
     </properties>
    </object>
    <object id="9" name="Puerta Gris 7" type="PuertaGris" gid="318" x="3072" y="1024" width="256" height="256" rotation="90">
     <properties>
      <property name="change" type="int" value="-90"/>
     </properties>
    </object>
    <object id="10" name="PuertaGris 4" type="PuertaGris" gid="318" x="1792" y="1728" width="256" height="256">
     <properties>
      <property name="change" type="int" value="-90"/>
     </properties>
    </object>
    <object id="11" name="PuertaGris 3" type="PuertaGris" gid="318" x="1024" y="3072" width="256" height="256">
     <properties>
      <property name="change" type="int" value="90"/>
     </properties>
    </object>
    <object id="12" name="PuertaGris 5 " type="PuertaGris" gid="318" x="2240" y="3328" width="256" height="256" rotation="90">
     <properties>
      <property name="change" type="int" value="90"/>
     </properties>
    </object>
    <object id="13" name="PuertaGris 8" type="PuertaGris" gid="318" x="3520" y="2304" width="256" height="256" rotation="180">
     <properties>
      <property name="change" type="int" value="-90"/>
     </properties>
    </object>
    <object id="14" name="PuertaGris 6" type="PuertaGris" gid="318" x="2304" y="2304" width="256" height="256">
     <properties>
      <property name="change" type="int" value="90"/>
     </properties>
    </object>
    <object id="15" name="PuertaGris 1" type="PuertaGris" gid="318" x="1472" y="1216" width="256" height="256" rotation="-90">
     <properties>
      <property name="change" type="int" value="-90"/>
     </properties>
    </object>
    <object id="24" name="PuertaNegra 5" type="PuertaNegra" gid="320" x="311" y="2496" width="201" height="192"/>
    <object id="25" name="PuertaNegra 1" type="PuertaNegra" gid="320" x="823" y="448" width="201" height="192"/>
    <object id="26" name="PuertaNegra 4" type="PuertaNegra" gid="320" x="3383" y="1472" width="201" height="192"/>
    <object id="27" name="PuertaNegra 6" type="PuertaNegra" gid="320" x="3383" y="3264" width="201" height="192"/>
    <object id="28" name="PuertaNegra 8" type="PuertaNegra" gid="320" x="1847" y="3776" width="201" height="192"/>
    <object id="29" name="PuertaNegra 2" type="PuertaNegra" gid="320" x="2752" y="906" width="202" height="192" rotation="-90"/>
    <object id="30" name="PuertaNegra 3" type="PuertaNegra" gid="320" x="3776" y="650" width="202" height="192" rotation="-90"/>
    <object id="31" name="PuertaNegra 7" type="PuertaNegra" gid="320" x="448" y="3722" width="202" height="192" rotation="-90"/>
   </objectgroup>
  </group>
 </group>
</map>
