<?xml version="1.0" encoding="UTF-8"?>
<map version="1.10" tiledversion="1.12.1" orientation="orthogonal" renderorder="right-down" width="64" height="64" tilewidth="64" tileheight="64" infinite="0" nextlayerid="2" nextobjectid="1">
 <tileset firstgid="1" source="ladrillo_limpio.tsx"/>
 <tileset firstgid="2" source="pared_izquierda.tsx"/>
 <tileset firstgid="3" source="../Palm Tree Island (ArtBoard).tsx"/>
 <layer id="1" name="Capa de patrones 1" width="64" height="64">
  <data encoding="csv">
0,0,0,0,0,0,0,0,0,0,0,0,0,0,0,0,0,0,0,0,0,0,0,0,0,0,0,0,0,0,0,0,0,0,0,0,0,0,0,0,0,0,0,0,0,0,0,0,0,0,0,0,0,0,0,0,0,0,0,0,0,0,0,0,
0,0,0,0,0,0,0,0,0,0,0,0,0,0,0,0,0,0,0,0,0,0,0,0,0,0,0,0,0,0,0,0,0,0,0,0,0,0,0,0,0,0,0,0,0,0,0,0,0,0,0,0,0,0,0,0,0,0,0,0,0,0,0,0,
0,0,0,0,0,0,0,0,0,0,0,0,0,0,0,0,0,0,0,0,0,0,0,0,0,0,0,0,0,0,0,0,0,0,0,0,0,0,0,0,0,0,0,0,0,0,0,0,0,0,0,0,0,0,0,0,0,0,0,0,0,0,0,0,
0,0,0,255,255,255,255,255,255,255,255,255,255,255,255,255,255,255,255,255,255,255,255,255,255,255,255,255,255,255,255,255,255,255,255,255,255,255,255,255,255,255,255,255,255,255,255,255,255,255,255,255,255,255,255,255,255,255,255,255,255,0,0,0,
0,0,0,255,0,0,0,0,0,0,0,0,0,0,0,0,0,0,0,258,0,0,0,0,0,0,0,2,0,0,0,0,0,0,0,0,2,0,0,0,0,0,0,0,2,0,0,0,0,0,0,0,2,0,0,0,0,0,0,0,255,0,0,0,
0,0,0,255,0,0,0,0,0,0,0,0,0,0,0,0,0,251,0,258,0,0,0,0,0,0,0,2,0,0,0,0,0,0,0,0,2,0,0,0,0,0,0,0,2,0,0,0,0,0,0,0,2,0,0,0,0,0,0,0,255,0,0,0,
0,0,0,255,0,0,0,0,0,0,0,0,0,0,0,0,0,0,0,258,0,0,0,0,0,0,0,2,0,0,0,0,0,0,0,0,2,0,0,0,0,0,0,0,2,0,0,0,0,0,0,0,2,0,0,0,0,0,0,0,255,0,0,0,
0,0,0,255,0,0,0,258,258,258,258,258,258,258,258,258,258,258,258,258,0,0,0,2,0,0,0,2,0,0,0,0,0,0,0,0,2,0,0,0,2,0,0,0,2,0,0,0,0,0,0,0,2,0,0,0,2,0,0,0,255,0,0,0,
0,0,0,255,0,0,0,0,0,0,0,258,0,0,0,0,0,0,0,0,0,0,0,0,0,0,0,2,0,0,0,0,0,0,0,0,2,0,0,0,0,0,0,0,2,0,0,0,0,0,0,0,2,0,0,0,0,0,0,0,255,0,0,0,
0,0,0,255,0,0,0,0,0,0,0,258,0,0,0,0,0,0,0,0,0,0,0,0,0,0,0,2,0,0,0,0,0,0,0,0,2,0,0,0,0,0,0,0,2,0,0,0,0,0,0,0,2,0,0,0,0,0,0,0,255,0,0,0,
0,0,0,255,0,0,0,0,0,0,0,258,0,0,0,0,0,0,0,0,0,0,0,0,0,0,0,2,0,0,0,0,0,0,0,0,2,0,0,0,0,0,0,0,2,0,0,0,0,0,0,0,2,0,0,0,0,0,0,0,255,0,0,0,
0,0,0,255,258,258,258,258,0,0,0,258,0,0,0,255,255,255,255,255,255,255,255,255,0,1,1,1,1,1,1,1,1,1,1,1,1,1,1,1,1,1,1,1,1,1,1,1,1,1,1,1,1,2,2,2,2,2,2,2,255,0,0,0,
0,0,0,255,0,0,0,0,0,0,0,258,0,0,0,255,0,0,0,0,0,0,0,0,0,0,0,0,0,0,0,0,0,0,0,0,0,0,0,0,0,0,0,0,2,0,0,0,0,0,0,0,1,0,0,0,0,0,0,0,255,0,0,0,
0,0,0,255,0,0,0,0,0,0,0,258,0,0,0,255,0,0,0,0,0,0,0,0,0,0,0,0,0,0,0,0,0,0,0,0,0,0,0,0,0,0,0,0,2,0,0,0,0,0,0,0,1,0,0,0,0,0,0,0,255,0,0,0,
0,0,0,255,0,0,0,0,0,0,0,258,0,0,0,255,0,0,0,0,0,0,0,0,0,0,0,0,255,0,0,0,0,0,0,0,0,0,0,0,0,0,0,0,2,0,0,0,0,0,0,0,1,0,0,0,0,0,0,0,255,0,0,0,
0,0,0,255,0,0,0,258,258,258,258,258,0,0,0,255,0,0,0,255,255,255,255,255,255,0,0,0,255,0,0,0,255,0,0,0,0,0,0,0,0,0,0,0,2,0,0,0,1,0,0,0,1,0,0,0,0,0,0,0,255,0,0,0,
0,0,0,255,0,0,0,258,0,0,0,0,0,0,0,255,0,0,0,255,0,0,0,0,0,0,0,0,255,0,0,0,255,0,0,0,0,0,0,0,0,0,0,0,2,0,0,0,0,0,0,0,0,0,0,0,0,0,0,0,255,0,0,0,
0,0,0,255,0,0,0,258,0,0,0,0,0,0,0,255,0,0,0,255,0,0,0,0,0,0,0,0,255,0,0,0,255,0,0,0,0,0,0,0,0,0,0,0,2,0,0,0,0,0,0,0,255,255,255,255,255,255,255,255,255,0,0,0,
0,0,0,255,0,0,0,258,0,0,0,0,0,0,0,255,0,0,0,255,0,0,0,0,0,0,0,0,255,0,0,0,255,0,0,0,0,0,0,0,0,0,0,0,2,0,0,0,0,0,0,0,0,0,0,0,0,0,0,0,255,0,0,0,
0,0,0,255,0,0,0,255,255,255,255,255,255,255,255,255,0,0,0,255,255,255,255,255,255,255,255,255,255,0,0,0,255,255,255,255,255,255,255,255,255,255,255,255,255,0,0,0,0,0,0,0,0,0,0,0,0,0,0,0,255,0,0,0,
0,0,0,255,0,0,0,0,0,0,0,255,0,0,0,0,0,0,0,0,0,0,0,0,0,0,0,0,0,0,0,0,0,0,0,0,0,0,0,0,0,0,0,0,255,0,0,0,0,0,0,0,0,0,0,0,0,0,0,0,255,0,0,0,
0,0,0,255,0,0,0,0,0,0,0,255,0,0,0,0,0,0,0,0,0,0,0,0,0,0,0,0,0,0,0,0,0,0,0,0,0,0,0,0,0,0,0,0,255,0,0,0,0,0,0,0,255,255,255,255,255,0,0,0,255,0,0,0,
0,0,0,255,0,0,0,0,0,251,0,255,0,0,0,0,0,0,0,0,0,0,0,0,0,0,0,0,0,0,0,0,0,0,0,0,0,0,0,0,0,0,0,0,255,0,0,0,0,0,0,0,0,0,0,0,255,0,0,0,255,0,0,0,
0,0,0,255,0,0,0,0,0,0,0,255,0,0,0,255,255,255,255,255,0,0,0,1,0,0,0,0,0,0,0,0,0,0,0,0,0,0,0,0,1,0,0,0,255,0,0,0,0,0,0,0,0,0,0,0,255,0,0,0,255,0,0,0,
0,0,0,255,255,255,255,255,255,255,255,255,0,0,0,255,0,0,0,255,0,0,0,0,0,0,0,0,0,0,0,0,0,0,0,0,0,0,0,0,0,0,0,0,255,0,0,0,0,0,0,0,0,0,0,0,255,0,0,0,255,0,0,0,
0,0,0,255,0,0,0,0,0,0,0,0,0,0,0,255,0,0,0,255,0,0,0,0,0,0,0,0,0,0,0,0,0,0,0,0,0,0,0,0,0,0,0,0,255,0,0,0,255,0,0,0,255,0,0,0,255,255,255,255,255,0,0,0,
0,0,0,255,0,0,0,0,0,0,0,0,0,0,0,255,0,0,0,255,0,0,0,0,0,0,0,0,0,0,0,0,0,0,0,0,0,0,0,0,0,0,0,0,255,0,0,0,255,0,0,0,255,0,0,0,0,0,0,0,255,0,0,0,
0,0,0,255,0,0,0,0,0,0,0,0,0,0,0,255,0,0,0,255,0,0,0,0,0,0,0,1,1,1,1,1,1,1,1,1,1,0,0,0,0,0,0,0,255,0,0,0,255,0,0,0,255,0,0,0,0,0,251,0,255,0,0,0,
0,0,0,255,0,0,0,255,255,255,255,255,255,255,255,255,0,0,0,255,0,0,0,0,0,0,0,1,0,0,0,0,0,0,0,0,1,0,0,0,0,0,0,0,255,0,0,0,255,0,0,0,255,0,0,0,0,0,0,0,255,0,0,0,
0,0,0,255,0,0,0,255,0,0,0,0,0,0,0,0,0,0,0,255,0,0,0,0,0,0,0,1,0,0,0,0,0,0,0,0,1,0,0,0,0,0,0,0,255,255,255,255,255,0,0,0,255,255,255,255,255,255,255,255,255,0,0,0,
0,0,0,255,0,0,0,255,0,0,0,0,0,0,0,0,0,0,0,255,0,0,0,0,0,0,0,1,0,0,0,0,0,0,0,0,1,0,0,0,0,0,0,0,0,0,0,0,0,0,0,0,0,0,0,0,0,0,0,0,255,0,0,0,
0,0,0,255,0,0,0,255,0,0,0,0,0,0,0,0,0,0,0,255,0,0,0,0,0,0,0,1,0,0,0,0,0,0,0,0,1,0,0,0,0,0,0,0,0,0,0,0,0,0,0,0,0,0,0,0,0,0,0,0,255,0,0,0,
0,0,0,255,0,0,0,255,258,258,258,258,255,255,255,255,0,0,0,255,0,0,0,0,0,0,0,1,0,0,0,0,0,0,0,0,1,0,0,0,0,0,0,0,0,0,0,0,0,0,0,0,0,0,0,0,0,0,0,0,255,0,0,0,
0,0,0,255,0,0,0,0,0,0,0,255,0,0,0,0,0,0,0,255,0,0,0,0,0,0,0,1,0,0,0,0,0,0,0,0,1,0,0,0,0,0,0,0,255,255,255,255,255,255,255,255,255,255,255,255,255,0,0,0,255,0,0,0,
0,0,0,255,0,0,0,0,0,0,0,255,0,0,0,0,0,0,0,255,0,0,0,0,0,0,0,1,0,0,0,0,0,0,0,0,1,0,0,0,0,0,0,0,255,0,0,0,0,0,0,0,0,0,0,0,255,0,0,0,255,0,0,0,
0,0,0,255,0,0,0,0,0,0,0,255,0,0,0,0,0,0,0,255,0,0,0,0,0,0,0,1,0,0,0,0,0,0,0,0,1,0,0,0,0,0,0,0,256,0,0,0,0,0,0,0,0,0,0,0,255,0,0,0,255,0,0,0,
0,0,0,255,255,255,255,258,0,0,0,255,0,0,0,0,0,0,0,255,0,0,0,0,0,0,0,1,1,1,1,1,1,1,1,1,1,0,0,0,0,0,0,0,256,0,0,0,0,0,0,0,0,0,0,0,255,0,0,0,255,0,0,0,
0,0,0,255,0,0,0,0,0,0,0,255,0,0,0,0,0,0,0,256,0,0,0,0,0,0,0,0,0,0,0,0,0,0,0,0,0,0,0,0,0,0,0,0,256,0,0,0,255,255,255,255,255,255,255,255,255,0,0,0,255,0,0,0,
0,0,0,255,0,251,0,0,0,0,0,255,0,0,0,0,0,0,0,256,0,0,0,0,0,0,0,0,0,0,0,0,0,0,0,0,0,0,0,0,0,0,0,0,256,0,0,0,255,0,0,0,0,0,0,0,0,0,0,0,255,0,0,0,
0,0,0,255,0,0,0,0,0,0,0,255,0,0,0,0,0,0,0,256,0,0,0,0,0,0,0,0,0,0,0,0,0,0,0,0,0,0,0,0,0,0,0,0,256,0,0,0,255,0,0,0,0,0,0,0,0,0,0,0,255,0,0,0,
0,0,0,255,256,256,256,255,255,255,255,255,0,0,0,258,258,258,258,256,0,0,0,1,0,0,0,0,0,0,0,0,0,0,0,0,0,0,0,0,0,0,0,0,256,0,0,0,255,0,0,0,0,0,0,0,0,0,0,0,255,0,0,0,
0,0,0,255,0,0,0,255,0,0,0,0,0,0,0,0,0,0,0,256,0,0,0,0,0,0,0,0,0,0,0,0,0,0,0,0,0,0,0,0,0,0,0,0,256,0,0,0,255,0,0,0,255,255,255,255,255,0,0,0,255,0,0,0,
0,0,0,255,0,0,0,255,0,0,0,0,0,0,0,0,0,0,0,256,0,0,0,0,0,0,0,0,0,0,0,0,0,0,0,0,0,0,0,0,0,0,0,0,256,0,0,0,255,0,0,0,255,0,0,0,255,0,0,0,255,0,0,0,
0,0,0,255,0,0,0,255,0,0,0,0,0,0,0,0,0,0,0,256,0,0,0,0,0,0,0,0,0,0,0,0,0,0,0,0,0,0,0,0,0,0,0,0,256,0,0,0,255,0,0,0,255,0,0,0,255,0,0,0,255,0,0,0,
0,0,0,255,0,0,0,255,0,0,0,255,255,255,255,0,0,0,0,256,256,256,256,256,256,256,256,256,256,256,256,258,258,258,258,258,258,0,0,0,258,256,256,256,256,0,0,0,255,255,255,255,255,0,0,0,255,0,0,0,255,0,0,0,
0,0,0,255,0,0,0,255,0,0,0,0,0,0,255,0,0,0,0,0,0,0,0,0,0,0,0,0,0,0,0,258,0,0,0,0,0,0,0,0,258,0,0,0,0,0,0,0,0,0,0,0,0,0,0,0,255,0,0,0,255,0,0,0,
0,0,0,255,0,0,0,255,0,0,0,0,0,0,255,0,0,0,0,0,0,0,0,0,0,0,0,0,0,0,0,258,0,0,0,0,0,0,0,0,258,0,0,0,0,0,0,0,0,0,0,0,0,0,0,0,255,0,0,0,255,0,0,0,
0,0,0,255,0,0,0,255,0,0,0,0,0,0,255,0,0,0,0,0,0,0,0,0,0,0,0,0,0,0,0,258,0,0,0,0,0,0,0,0,258,0,0,0,0,0,0,0,0,0,0,0,0,0,0,0,255,0,0,0,255,0,0,0,
0,0,0,255,0,0,0,255,255,255,255,0,0,0,255,0,0,0,0,258,258,258,258,258,0,0,0,258,0,0,0,258,0,0,0,0,258,258,258,258,258,0,0,0,255,0,0,0,255,255,255,255,255,255,255,255,255,0,0,0,255,0,0,0,
0,0,0,255,0,0,0,0,0,0,0,0,0,0,255,0,0,0,0,258,0,0,0,0,0,0,0,258,0,0,0,0,0,0,0,0,258,0,0,0,0,0,0,0,255,0,0,0,0,0,0,0,255,0,0,0,0,0,0,0,255,0,0,0,
0,0,0,255,0,0,0,0,0,0,0,0,0,0,255,0,0,0,0,258,0,0,0,0,0,0,0,258,0,0,0,0,0,0,0,0,258,0,0,0,0,0,0,0,255,0,0,0,0,0,0,0,255,0,0,0,0,0,0,0,255,0,0,0,
0,0,0,255,0,0,0,0,0,0,0,0,0,0,255,0,0,0,0,258,0,0,0,0,0,0,0,258,0,0,0,0,0,0,0,0,258,0,0,0,0,0,0,0,255,0,0,0,0,0,0,0,255,0,0,0,0,0,0,0,255,0,0,0,
0,0,0,255,255,255,255,255,255,255,255,255,255,255,255,0,0,0,0,258,258,258,258,258,258,258,258,258,258,258,258,258,258,258,258,258,258,0,0,0,255,255,255,255,255,255,255,255,255,0,0,0,255,255,255,255,255,255,255,255,255,0,0,0,
0,0,0,255,0,0,0,0,0,0,0,255,0,0,0,0,0,0,0,258,0,0,0,0,0,0,0,0,0,0,0,0,0,0,0,0,0,0,0,0,255,0,0,0,0,0,0,0,255,0,0,0,0,0,0,0,0,0,0,0,255,0,0,0,
0,0,0,255,0,0,0,0,0,0,0,255,0,0,0,0,0,0,0,258,0,0,0,0,0,0,0,0,0,0,0,0,0,0,0,0,0,0,0,0,255,0,0,0,0,0,0,0,255,0,0,0,0,0,0,0,0,0,0,0,255,0,0,0,
0,0,0,255,0,0,0,0,0,0,0,255,0,0,0,0,0,0,0,258,0,0,0,0,0,0,0,0,0,0,0,0,0,0,0,0,0,0,0,0,255,0,0,0,0,0,0,0,255,0,0,0,0,0,0,0,0,0,0,0,255,0,0,0,
0,0,0,255,0,0,0,255,0,0,0,255,0,0,0,255,255,255,255,255,0,0,0,258,258,258,258,258,258,258,258,258,258,258,258,258,255,0,0,0,255,0,0,0,255,0,0,0,255,255,255,255,255,255,255,255,255,0,0,0,255,0,0,0,
0,0,0,255,0,0,0,255,0,0,0,0,0,0,0,0,0,0,0,258,0,0,0,0,0,0,0,0,0,0,0,0,0,0,0,0,255,0,0,0,0,0,0,0,255,0,0,0,0,0,0,0,0,0,0,0,0,0,0,0,255,0,0,0,
0,0,0,255,0,251,0,255,0,0,0,0,0,0,0,0,0,0,0,258,0,0,0,0,0,0,0,0,0,0,0,0,0,0,251,0,255,0,0,0,0,0,0,0,255,0,0,0,0,0,0,0,0,0,0,0,0,0,0,0,255,0,0,0,
0,0,0,255,0,0,0,255,0,0,0,0,0,0,0,0,0,0,0,258,0,0,0,0,0,0,0,0,0,0,0,0,0,0,0,0,255,0,0,0,0,0,0,0,255,0,0,0,0,0,0,0,0,0,0,0,0,0,0,0,255,0,0,0,
0,0,0,255,255,255,255,255,255,255,255,255,255,255,255,255,255,255,255,255,255,255,255,255,255,255,255,255,255,255,255,255,255,255,255,255,255,255,255,255,255,255,255,255,255,255,255,255,255,255,255,255,255,255,255,255,255,255,255,255,255,0,0,0,
0,0,0,0,0,0,0,0,0,0,0,0,0,0,0,0,0,0,0,0,0,0,0,0,0,0,0,0,0,0,0,0,0,0,0,0,0,0,0,0,0,0,0,0,0,0,0,0,0,0,0,0,0,0,0,0,0,0,0,0,0,0,0,0,
0,0,0,0,0,0,0,0,0,0,0,0,0,0,0,0,0,0,0,0,0,0,0,0,0,0,0,0,0,0,0,0,0,0,0,0,0,0,0,0,0,0,0,0,0,0,0,0,0,0,0,0,0,0,0,0,0,0,0,0,0,0,0,0,
0,0,0,0,0,0,0,0,0,0,0,0,0,0,0,0,0,0,0,0,0,0,0,0,0,0,0,0,0,0,0,0,0,0,0,0,0,0,0,0,0,0,0,0,0,0,0,0,0,0,0,0,0,0,0,0,0,0,0,0,0,0,0,0
</data>
 </layer>
</map>
