<?xml version="1.0" encoding="UTF-8"?>
<map version="1.10" tiledversion="1.12.1" orientation="orthogonal" renderorder="right-down" width="25" height="15" tilewidth="64" tileheight="64" infinite="0" nextlayerid="12" nextobjectid="6">
 <tileset firstgid="1" source="../../../../Cosas en sucio/ladrillo_limpio.tsx"/>
 <tileset firstgid="2" source="../../../../Cosas en sucio/palanca1.tsx"/>
 <tileset firstgid="3" source="../../../../Cosas en sucio/puerta_cerrada.tsx"/>
 <tileset firstgid="4" source="../../../../Cosas en sucio/thorneAndandoMejorado.tsx"/>
 <tileset firstgid="4" source="thorne_andando_mejorado.tsx"/>
 <group id="4" name="Entidades">
  <objectgroup id="8" name="Jugador">
   <object id="3" name="Punto Reaparición Jugador" type="Jugador" gid="4" x="160" y="896" width="128" height="128"/>
  </objectgroup>
 </group>
 <group id="3" name="Objetos">
  <group id="9" name="Objetos de evento">
   <objectgroup id="10" name="Emisor">
    <properties>
     <property name="Receptor" type="object" value="2"/>
    </properties>
    <object id="4" name="Palanca1" type="Palanca" gid="2" x="559" y="896" width="100" height="100">
     <properties>
      <property name="Receptor" type="object" value="5"/>
     </properties>
    </object>
   </objectgroup>
   <objectgroup id="11" name="Receptor">
    <object id="5" name="Puerta1" type="Puerta" gid="3" x="901" y="896" width="164" height="164"/>
   </objectgroup>
  </group>
 </group>
 <group id="2" name="Bloques">
  <layer id="1" name="Muros" width="25" height="15">
   <data encoding="csv">
1,1,1,1,1,1,1,1,1,1,1,1,1,1,1,1,1,1,1,1,1,1,1,1,1,
1,0,0,0,0,0,0,0,0,0,0,0,0,0,0,0,0,0,0,0,0,0,0,0,1,
1,0,0,0,0,0,0,0,0,0,0,0,0,0,0,0,0,0,0,0,0,0,0,0,1,
1,0,0,0,0,0,0,0,0,0,0,0,0,0,0,0,0,0,0,0,0,0,0,0,1,
1,0,0,0,0,0,0,0,0,0,0,0,0,0,0,0,0,0,0,0,0,0,0,0,1,
1,0,0,0,0,0,0,0,0,0,0,0,0,0,0,0,0,0,0,0,0,0,0,0,1,
1,0,0,0,0,0,0,0,0,0,0,0,0,0,0,0,0,0,0,0,0,0,0,0,1,
1,0,0,0,0,0,0,0,0,0,0,0,0,0,0,0,0,0,0,0,0,0,0,0,1,
1,0,0,0,0,0,0,0,0,0,0,0,0,0,0,0,0,0,0,0,0,0,0,0,1,
1,0,0,0,0,0,0,0,0,0,0,0,0,0,0,0,0,0,0,0,0,0,0,0,1,
1,0,0,0,0,0,0,0,0,0,0,0,0,0,0,0,0,0,0,0,0,0,0,0,1,
1,0,0,0,0,0,0,0,0,0,0,0,0,0,0,0,0,0,0,0,0,0,0,0,1,
1,0,0,0,0,0,0,0,0,0,0,0,0,0,0,0,0,0,0,0,0,0,0,0,1,
1,0,0,0,0,0,0,0,0,0,0,0,0,0,0,0,0,0,0,0,0,0,0,0,1,
1,1,1,1,1,1,1,1,1,1,1,1,1,1,1,1,1,1,1,1,1,1,1,1,1
</data>
  </layer>
 </group>
</map>
